z_dist/img/icons/interface/apps.svg

<svg width="64" height="64" viewBox="0 0 64 64" fill="none" xmlns="http://www.w3.org/2000/svg">
<path d="M7 7H26.88C27.4177 7 27.7649 7.00068 28.0298 7.02089C28.2841 7.0403 28.3794 7.07336 28.4258 7.09517C28.6363 7.19425 28.8057 7.36366 28.9048 7.57422C28.9266 7.62057 28.9597 7.71594 28.9791 7.97025C28.9993 8.23511 29 8.58228 29 9.12V22.2C29 23.5212 28.9993 24.4561 28.9434 25.1885C28.8883 25.9105 28.7839 26.3534 28.6193 26.7031C28.223 27.5453 27.5453 28.223 26.7031 28.6193C26.3534 28.7839 25.9105 28.8883 25.1885 28.9434C24.4561 28.9993 23.5212 29 22.2 29H9.12C8.58228 29 8.23511 28.9993 7.97025 28.9791C7.71594 28.9597 7.62057 28.9266 7.57422 28.9048C7.36366 28.8057 7.19425 28.6363 7.09517 28.4258C7.07336 28.3794 7.0403 28.2841 7.02089 28.0298C7.00068 27.7649 7 27.4177 7 26.88V7Z" stroke="#111111" stroke-width="2"/>
<path d="M35 9.12C35 8.58228 35.0007 8.23511 35.0209 7.97025C35.0403 7.71594 35.0734 7.62057 35.0952 7.57422C35.1943 7.36366 35.3637 7.19425 35.5742 7.09517C35.6206 7.07336 35.7159 7.0403 35.9703 7.02089C36.2351 7.00068 36.5823 7 37.12 7H57V26.88C57 27.4177 56.9993 27.7649 56.9791 28.0297C56.9597 28.2841 56.9266 28.3794 56.9048 28.4258C56.8057 28.6363 56.6363 28.8057 56.4258 28.9048C56.3794 28.9266 56.2841 28.9597 56.0298 28.9791C55.7649 28.9993 55.4177 29 54.88 29H41.8C40.4788 29 39.5439 28.9993 38.8115 28.9434C38.0895 28.8883 37.6466 28.7839 37.2969 28.6193C36.4547 28.223 35.777 27.5453 35.3807 26.7031C35.2161 26.3534 35.1117 25.9104 35.0566 25.1885C35.0007 24.4561 35 23.5212 35 22.2V9.12Z" stroke="#111111" stroke-width="2"/>
<path d="M7 37.12C7 36.5823 7.00068 36.2351 7.02089 35.9703C7.0403 35.7159 7.07336 35.6206 7.09517 35.5742C7.19425 35.3637 7.36366 35.1943 7.57422 35.0952C7.62057 35.0734 7.71594 35.0403 7.97025 35.0209C8.23511 35.0007 8.58228 35 9.12 35H22.2C23.5212 35 24.4561 35.0007 25.1885 35.0566C25.9105 35.1117 26.3534 35.2161 26.7031 35.3807C27.5453 35.777 28.223 36.4547 28.6193 37.2969C28.7839 37.6466 28.8883 38.0895 28.9434 38.8115C28.9993 39.5439 29 40.4788 29 41.8V54.88C29 55.4177 28.9993 55.7649 28.9791 56.0298C28.9597 56.2841 28.9266 56.3794 28.9048 56.4258C28.8057 56.6363 28.6363 56.8058 28.4258 56.9048C28.3794 56.9266 28.2841 56.9597 28.0298 56.9791C27.7649 56.9993 27.4177 57 26.88 57H7V37.12Z" stroke="#111111" stroke-width="2"/>
<path d="M35 41.8C35 40.4788 35.0007 39.5439 35.0566 38.8115C35.1117 38.0895 35.2161 37.6466 35.3807 37.2969C35.777 36.4547 36.4547 35.777 37.2969 35.3807C37.6466 35.2161 38.0895 35.1117 38.8115 35.0566C39.5439 35.0007 40.4788 35 41.8 35H54.88C55.4177 35 55.7649 35.0007 56.0298 35.0209C56.2841 35.0403 56.3794 35.0734 56.4258 35.0952C56.6363 35.1943 56.8057 35.3637 56.9048 35.5742C56.9266 35.6206 56.9597 35.7159 56.9791 35.9703C56.9993 36.2351 57 36.5823 57 37.12V57H37.12C36.5823 57 36.2351 56.9993 35.9702 56.9791C35.7159 56.9597 35.6206 56.9266 35.5742 56.9048C35.3637 56.8057 35.1943 56.6363 35.0952 56.4258C35.0734 56.3794 35.0403 56.2841 35.0209 56.0298C35.0007 55.7649 35 55.4177 35 54.88V41.8Z" stroke="#111111" stroke-width="2"/>
</svg>

<svg width="64" height="64" fill="none" xmlns="http://www.w3.org/2000/svg"><path d="M7 7h19.88c.538 0 .885 0 1.15.02.254.02.35.053.396.075a1 1 0 01.479.48c.022.046.055.14.074.395.02.265.021.612.021 1.15V22.2c0 1.321 0 2.256-.057 2.989-.055.721-.16 1.164-.324 1.514a4 4 0 01-1.916 1.916c-.35.165-.793.27-1.514.324C24.456 29 23.52 29 22.2 29H9.12c-.538 0-.885 0-1.15-.02-.254-.02-.35-.053-.396-.075a1 1 0 01-.479-.48c-.022-.046-.055-.14-.074-.395C7 27.765 7 27.418 7 26.88V7zm28 2.12c0-.538 0-.885.02-1.15.02-.254.053-.35.075-.396a1 1 0 01.48-.479c.046-.022.14-.055.395-.074C36.235 7 36.582 7 37.12 7H57v19.88c0 .538 0 .885-.02 1.15-.02.254-.053.35-.075.396a1 1 0 01-.48.479c-.046.022-.14.055-.395.074a17.1 17.1 0 01-1.15.021H41.8c-1.321 0-2.256 0-2.988-.057-.722-.055-1.165-.16-1.515-.324a4 4 0 01-1.916-1.916c-.165-.35-.27-.793-.324-1.514C35 24.456 35 23.52 35 22.2V9.12zm-28 28c0-.538 0-.885.02-1.15.02-.254.053-.35.075-.396a1 1 0 01.48-.479c.046-.022.14-.055.395-.074C8.235 35 8.582 35 9.12 35H22.2c1.321 0 2.256 0 2.989.057.721.055 1.164.16 1.514.324a4 4 0 011.916 1.916c.165.35.27.793.324 1.515.056.732.057 1.667.057 2.988v13.08c0 .538 0 .885-.02 1.15-.02.254-.053.35-.075.396a1 1 0 01-.48.479c-.046.022-.14.055-.395.074a17.1 17.1 0 01-1.15.021H7V37.12zm28 4.68c0-1.321 0-2.256.057-2.988.055-.722.16-1.165.324-1.515a4 4 0 011.916-1.916c.35-.165.793-.27 1.515-.324C39.544 35 40.479 35 41.8 35h13.08c.538 0 .885 0 1.15.02.254.02.35.053.396.075a1 1 0 01.479.48c.022.046.055.14.074.395.02.265.021.612.021 1.15V57H37.12c-.538 0-.885 0-1.15-.02-.254-.02-.35-.053-.396-.075a1 1 0 01-.479-.48c-.022-.046-.055-.14-.074-.395A17.1 17.1 0 0135 54.88V41.8z" stroke="#111" stroke-width="2"/></svg>
